src/images/reviews/star.svg

<svg height="17" viewBox="0 0 19 17" width="19" xmlns="http://www.w3.org/2000/svg"><path d="m4.73649592 16.8192102c-.36681369.1928453-.79552991-.1186352-.72547473-.5270883l.90974833-5.3042397-3.85375575-3.75648347c-.29675851-.28926806-.13300349-.79325419.27710668-.85284669l5.32575947-.77387815 2.38175204-4.82595675c.18340685-.37162285.71332923-.37162285.89673608 0l2.38175206 4.82595675 5.3257594.77387815c.4101102.0595925.5738652.56357863.2771067.85284669l-3.8537557 3.75648347.9097483 5.3042397c.0700552.4084531-.358661.7199336-.7254747.5270883l-4.7635041-2.5043223z" fill="#fff"/></svg>

<svg xmlns="http://www.w3.org/2000/svg" width="19" height="17" viewBox="0 0 19 17">
  <path fill="#FFFFFF" d="M4.73649592,16.8192102 C4.36968223,17.0120555 3.94096601,16.700575 4.01102119,16.2921219 L4.92076952,10.9878822 L1.06701377,7.23139873 C0.770255256,6.94213067 0.934010279,6.43814454 1.34412045,6.37855204 L6.66987992,5.60467389 L9.05163196,0.778717144 C9.23503881,0.407094285 9.76496119,0.407094285 9.94836804,0.778717144 L12.3301201,5.60467389 L17.6558795,6.37855204 C18.0659897,6.43814454 18.2297447,6.94213067 17.9329862,7.23139873 L14.0792305,10.9878822 L14.9889788,16.2921219 C15.059034,16.700575 14.6303178,17.0120555 14.2635041,16.8192102 L9.5,14.3148879 L4.73649592,16.8192102 Z"/>
</svg>
